packages/core/src/svgs/tokens/branded/CAKE.svg

<svg width="24" height="24" viewBox="0 0 24 24" fill="none" xmlns="http://www.w3.org/2000/svg">
<path d="M21.6884 15.8257C21.6884 19.0569 17.3571 21.7006 12.0322 21.7006C6.70722 21.7006 2.37598 19.0569 2.37598 15.8257V14.3068H21.7509V15.8257H21.6884Z" fill="#FBD984"/>
<path d="M6.10722 4.61273C6.04772 4.33456 6.05103 4.04663 6.11688 3.76991C6.18274 3.49317 6.30951 3.23463 6.48794 3.01309C6.66637 2.79154 6.89197 2.61261 7.1483 2.48929C7.40465 2.36596 7.68526 2.30138 7.96971 2.30023C9.03222 2.30023 10.2259 3.16273 10.2259 4.21899V8.56896C10.8947 8.50647 11.2321 8.44397 11.9635 8.44397C12.6321 8.44397 12.976 8.37523 13.6384 8.44397L13.8073 3.98774C13.8073 2.93148 14.8259 2.30023 15.8947 2.30023C17.0885 2.30023 18.0196 3.42523 17.826 4.61273L17.2384 9.36273C20.0384 10.419 21.6822 12.2628 21.6822 14.3752C21.6822 17.6064 17.3571 20.2439 12.0322 20.2439C6.70722 20.2439 2.37598 17.6064 2.37598 14.3689C2.37598 12.2628 3.85097 10.419 6.65097 9.36273L6.10722 4.61273Z" fill="#CA7D45"/>
<path d="M9.50071 14.1876C9.50071 15.0314 9.08829 15.75 8.56323 15.75C8.03824 15.75 7.62573 15.0314 7.62573 14.1876C7.62573 13.3438 8.03824 12.6251 8.56323 12.6251C9.08829 12.6251 9.50071 13.3438 9.50071 14.1876ZM16.3757 14.1876C16.3757 15.0314 15.9631 15.75 15.4382 15.75C14.9132 15.75 14.5007 15.0314 14.5007 14.1876C14.5007 13.3438 14.9132 12.6251 15.4382 12.6251C15.9631 12.6251 16.3757 13.3438 16.3757 14.1876Z" fill="#522D0B"/>
<path d="M5.74999 5.125C5.43749 3.49999 6.54373 2 8.18749 2C9.63118 2 10.75 3.1875 10.75 4.62499L10.5437 7.92499H11.9687C12.3437 7.92499 12.7562 7.92499 13.25 7.98749V4.62499C13.25 3.1875 14.2375 2 15.6875 2C17.3312 2 18.5 3.49999 18.2499 5.125L17.625 8.93749C20.0874 9.99993 22 11.875 22 14.1875V15.625C22 17.5625 20.7374 19.1874 18.9062 20.2499C17.0812 21.3749 14.6875 21.9999 11.9687 21.9999C9.24997 21.9999 6.85624 21.3749 5.03124 20.2499C3.26249 19.1874 2 17.5625 2 15.625V14.1875C2 11.875 3.9125 9.93751 6.37499 8.87499L5.74999 5.125ZM17 9.50001L17.625 5.08125C17.8124 3.95625 16.95 2.75 15.7499 2.75C15.2612 2.74648 14.7903 2.93396 14.4377 3.27252C14.0852 3.61109 13.8787 4.07396 13.8625 4.5625V8.68749C13.3375 8.60623 12.5561 8.56248 11.9687 8.56248C11.3125 8.56248 10.5437 8.62499 10.0125 8.68749L10.125 4.62499C10.125 3.625 9.18741 2.625 8.18749 2.625C7.04999 2.625 6.16248 3.875 6.41874 4.99999L6.99999 9.50001C4.35 10.5 2.625 12.25 2.625 14.2499V15.6874C2.625 18.7499 6.94998 21.3749 11.9999 21.3749C17.05 21.3749 21.375 18.7499 21.375 15.6874V14.2499C21.4374 12.1874 19.7125 10.5 17 9.50001Z" fill="#522D0B"/>
</svg>

<svg xmlns="http://www.w3.org/2000/svg" width="24" height="24" fill="none" viewBox="0 0 24 24">
    <path fill="#FBD984" d="M21.688 15.826c0 3.23-4.33 5.875-9.656 5.875-5.325 0-9.656-2.644-9.656-5.875v-1.52h19.375v1.52z"/>
    <path fill="#CA7D45" d="M6.107 4.613A1.913 1.913 0 0 1 7.97 2.3c1.062 0 2.256.863 2.256 1.919v4.35c.669-.063 1.006-.125 1.737-.125.67 0 1.013-.069 1.675 0l.17-4.456c0-1.057 1.018-1.688 2.087-1.688 1.194 0 2.125 1.125 1.931 2.313l-.588 4.75c2.8 1.056 4.444 2.9 4.444 5.012 0 3.231-4.325 5.869-9.65 5.869s-9.656-2.638-9.656-5.875c0-2.106 1.475-3.95 4.275-5.006z"/>
    <path fill="#522D0B" d="M9.5 14.188c0 .843-.412 1.562-.937 1.562s-.937-.719-.937-1.562.412-1.563.937-1.563.938.719.938 1.563m6.876 0c0 .843-.413 1.562-.938 1.562s-.937-.719-.937-1.562.412-1.563.937-1.563.938.719.938 1.563"/>
    <path fill="#522D0B" d="M5.75 5.125C5.437 3.5 6.544 2 8.187 2c1.444 0 2.563 1.188 2.563 2.625l-.206 3.3h1.425c.375 0 .787 0 1.281.062V4.625c0-1.437.988-2.625 2.438-2.625C17.33 2 18.5 3.5 18.25 5.125l-.625 3.812C20.087 10 22 11.875 22 14.187v1.438c0 1.938-1.263 3.562-3.094 4.625C17.081 21.375 14.688 22 11.97 22s-5.113-.625-6.938-1.75C3.262 19.187 2 17.563 2 15.625v-1.437c0-2.313 1.913-4.25 4.375-5.313zM17 9.5l.625-4.419c.187-1.125-.675-2.331-1.875-2.331a1.875 1.875 0 0 0-1.887 1.813v4.124a14 14 0 0 0-1.894-.125c-.656 0-1.425.063-1.957.125l.113-4.062c0-1-.938-2-1.938-2C7.05 2.625 6.162 3.875 6.42 5L7 9.5c-2.65 1-4.375 2.75-4.375 4.75v1.437c0 3.063 4.325 5.688 9.375 5.688s9.375-2.625 9.375-5.688V14.25c.062-2.063-1.663-3.75-4.375-4.75"/>
</svg>
